!!!COM: Vivaldi, Antonio Lucio
!!!CDT: 1678/03/04-1741/08/28
!!!OPR: 12 Sonatas for Violin and Basso continuo
!!!OTL: Sonata in G major, op. @{OPS}, no. @{ONM} (@{SCT})
!!!OPS: 2
!!!ONM: 8
!!!OMV: 2. Giga
!!!SCT: RV 23
!!!SCA: Antonio Vivaldi: Thematisch-systematisches Verzeichnis seiner Werke (Ryom-Verzeichnis)
!!!OMD: Presto
!!!key: G
**kern	**fb	**kern
*part2	*	*part1
*staff2	*	*staff1
*ICklav	*	*ICstr
*Icemba	*	*Ivioln
*I"Basso continuo	*	*I"Violino
*I'bc	*	*I'v
*>[A,A,B,B]	*>[A,A,B,B]	*>[A,A,B,B]
*>norep[A,B]	*>norep[A,B]	*>norep[A,B]
*>A	*>A	*>A
*clefF4	*	*clefG2
*k[f#]	*	*k[f#]
*G:	*	*G:
*M12/8	*	*M12/8
*MM273	*	*MM273
=1	=1	=1
4.G\	.	8gg\L
.	.	8dd\
.	.	8gg\J
4.GG/	.	8gg\L
.	.	8dd\
.	.	8gg\J
4.d\	.	8aa\L
.	.	8ff#y\
.	.	8aa\J
4.D\	.	8aa\L
.	.	8ff#y\
.	.	8aa\J
=2	=2	=2
4.G\	.	8bb\L
.	.	8gg\
.	.	8bb\J
4.GG/	.	8bb\L
.	.	8gg\
.	.	8bb\J
4.d\	.	8aa\L
.	.	8ff#y\
.	.	8aa\J
4.D\	.	8aa\L
.	.	8ff#y\
.	.	8aa\J
=3	=3	=3
4.G\	.	8bb\L
.	.	8gg\
.	.	8bb\J
4.GG/	.	8bb\L
.	.	8gg\
.	.	8bb\J
8d\L	.	4aa\
8D\	.	.
8d\J	.	8dd\
8c\L	6 4 2	8r
8D\	.	8r
8c\J	.	8dd\
=4	=4	=4
4.B\	6	8gg\L
.	.	8dd\
.	.	8gg\J
4.BB/	.	8gg\L
.	.	8dd\
.	.	8gg\J
4.c\	.	8ee\L
.	.	8cc\
.	.	8ee\J
4.C/	.	8ee\L
.	.	8cc\
.	.	8ee\J
!!LO:LB:g=original
=5	=5	=5
4.c#X\	6	8aa\L
.	.	8ee\
.	.	8aa\J
4.C#X/	.	8aa\L
.	.	8ee\
.	.	8aa\J
4.d\	.	8ff#y\L
.	.	8dd\
.	.	8ff#y\J
4.D\	.	8ff#y\L
.	.	8dd\
.	.	8ff#y\J
=6	=6	=6
4.d#X\	6	8bb\L
.	.	8ff#y\
.	.	8bb\J
4.D#X\	.	8bb\L
.	.	8ff#y\
.	.	8bb\J
4.e\	.	8gg\L
.	.	8ee\
.	.	8gg\J
4.E\	.	8gg\L
.	.	8ee\
.	.	8gg\J
=7	=7	=7
4.c\	6	8aa\L
.	.	8ee\
.	.	8aa\J
4.C/	.	8aa\L
.	.	8ee\
.	.	8aa\J
4.D\	.	8ff#y\L
.	.	8dd\
.	.	8ff#y\J
4.BB/	6	8gg\L
.	.	8b\
.	.	8gg\J
=8	=8	=8
4.C/	6 5	8gg\L
.	.	8a\
.	.	8gg\J
4.D\	.	8ff#y\L
.	.	8a\
.	.	8ff#y\J
8G/L	.	4.gg\
8GG/	.	.
8G/J	.	.
8G/L	.	8r
8GG/	.	8r
8G/J	.	8dd\
=9	=9	=9
4.G\	.	8bb\L
.	.	8gg\
.	.	8bb\J
4.GG/	.	8bb\L
.	.	8gg\
.	.	8bb\J
8d\L	.	4aa\
8D\	.	.
8d\J	.	8dd\
8d\L	.	8r
8D\	.	8r
8d\J	.	8dd\
!!LO:LB:g=original
=10	=10	=10
4.G\	.	8bb\L
.	.	8gg\
.	.	8bb\J
4.GG/	.	8bb\L
.	.	8gg\
.	.	8bb\J
8d\L	.	4aa\
8D\	.	.
8d\J	.	8dd\
8c\L	6 4 2	8r
8D\	.	8r
8c\J	.	8dd\
=11	=11	=11
4.B\	6	8gg\L
.	.	8dd\
.	.	8gg\J
4.BB/	.	8gg\L
.	.	8dd\
.	.	8gg\J
4.c\	.	8ee\L
.	.	8cc\
.	.	8ee\J
4.C/	.	8ee\L
.	.	8cc\
.	.	8ee\J
=12	=12	=12
4.c#X\	6	8aa\L
.	.	8ee\
.	.	8aa\J
4.C#X/	.	8aa\L
.	.	8ee\
.	.	8aa\J
4.d\	.	8ff#y\L
.	.	8dd\
.	.	8ff#y\J
4.D\	.	8ff#y\L
.	.	8dd\
.	.	8ff#y\J
=13	=13	=13
4.d#X\	6	8bb\L
.	.	8ff#y\
.	.	8bb\J
4.D#X\	.	8bb\L
.	.	8ff#y\
.	.	8bb\J
4.e\	.	8gg\L
.	.	8ee\
.	.	8gg\J
4.E\	.	8gg\L
.	.	8ee\
.	.	8gg\J
!!LO:LB:g=original
=14	=14	=14
4.c#X\	6	8aa\L
.	.	8cc#X\
.	.	8aa\J
4.C#X/	.	8aa\L
.	.	8cc#y\
.	.	8aa\J
4.d\	.	8ff#y\L
.	.	8dd\
.	.	8ff#y\J
4.cn\	4 2	8ff#y\L
.	.	8dd\
.	.	8ff#y\J
=15	=15	=15
4.B\	6	8gg\L
.	.	8b\
.	.	8gg\J
4.G\	.	8gg\L
.	.	8b\
.	.	8gg\J
4.A\	#	8cc#X\L
.	.	8a\
.	.	8cc#y\J
4.F#y\	6	8dd/L
.	.	8f#y/
.	.	8dd/J
=16	=16	=16
4.G\	6 5	8dd/L
.	.	8e/
.	.	8dd/J
4.A\	#	8cc#X/L
.	.	8e/
.	.	8cc#y/J
2.D\	.	2.dd\
=17:|!|:	=17:|!|:	=17:|!|:
*>B	*>B	*>B
4.d\	.	8ff#y\L
.	.	8dd\
.	.	8ff#y\J
4.D\	.	8ff#y\L
.	.	8dd\
.	.	8ff#y\J
4.A\	#	8ee\L
.	.	8cc#X\
.	.	8ee\J
4.AA/	.	8ee\L
.	.	8cc#y\
.	.	8ee\J
=18	=18	=18
4.d\	.	8ff#y\L
.	.	8dd\
.	.	8ff#y\J
4.D\	.	8ff#y\L
.	.	8dd\
.	.	8ff#y\J
4.A\	#	8ee\L
.	.	8cc#X\
.	.	8ee\J
4.AA/	.	8ee\L
.	.	8cc#y\
.	.	8ee\J
!!LO:LB:g=original
=19	=19	=19
4.d\	.	8ff#y\L
.	.	8dd\
.	.	8ff#y\J
4.D\	.	8ff#y\L
.	.	8dd\
.	.	8ff#y\J
8A\L	#	4.ee\
8AA\	.	.
8A\J	.	.
8A\L	.	4.a/
8AA\	.	.
8A\J	.	.
=20	=20	=20
4.E\	.	8gg\L
.	.	8ee\
.	.	8gg\J
4.e\	.	8gg\L
.	.	8ee\
.	.	8gg\J
4.d#X\	6	8ff#y\L
.	.	8dd#X\
.	.	8ff#y\J
4.B\	#	8ff#y\L
.	.	8dd#y\
.	.	8ff#y\J
=21	=21	=21
4.e\	.	8gg\L
.	.	8ee\
.	.	8gg\J
4.E\	.	8gg\L
.	.	8ee\
.	.	8gg\J
4.D#X\	6	8ff#y\L
.	.	8dd#X\
.	.	8ff#y\J
4.BB/	#	8ff#y\L
.	.	8dd#y\
.	.	8ff#y\J
=22	=22	=22
4.E\	.	8gg\L
.	.	8ee\
.	.	8gg\J
4.e\	.	8gg\L
.	.	8ee\
.	.	8gg\J
8d#y\L	6	4.ff#y\
8B\	.	.
8d#y\J	.	.
8d#y\L	.	4.b\
8B\	.	.
8d#y\J	.	.
!!LO:LB:g=original
=23	=23	=23
4.e\	.	8bb\L
.	.	8gg\
.	.	8bb\J
4.E\	.	8bb\L
.	.	8gg\
.	.	8bb\J
4.A\	.	8ccc\L
.	.	8aa\
.	.	8ccc\J
4.AA/	.	8ccc\L
.	.	8aa\
.	.	8ccc\J
=24	=24	=24
4.G\	.	8bb\L
.	.	8gg\
.	.	8bb\J
4.GG/	.	8bb\L
.	.	8gg\
.	.	8bb\J
4.A\	.	8ccc\L
.	.	8aa\
.	.	8ccc\J
4.AA/	.	8ccc\L
.	.	8aa\
.	.	8ccc\J
=25	=25	=25
4.GG/	.	8bb\L
.	.	8gg\
.	.	8bb\J
4.E\	.	8bb\L
.	.	8gg\
.	.	8bb\J
4.F#y\	6#/	8aa\L
.	.	8ff#y\
.	.	8aa\J
4.D#X\	5	8aa\L
.	.	8ff#y\
.	.	8aa\J
=26	=26	=26
4.E\	.	8gg\L
.	.	8ee\
.	.	8gg\J
4.e\	.	8gg\L
.	.	8ee\
.	.	8gg\J
4.B\	#	8ff#y\L
.	.	8b\
.	.	8ff#y\J
4.E\	.	8gg\L
.	.	8ee\
.	.	8gg\J
!!LO:LB:g=original
=27	=27	=27
4.BB/	#	8ff#y\L
.	.	8b\
.	.	8ff#y\J
4.E\	.	8gg\L
.	.	8ee\
.	.	8gg\J
4.A\	6 5	8ff#y\L
.	.	8ee\
.	.	8ff#y\J
4.B\	#	8b\L
.	.	8cc#X\
.	.	8dd#X\J
=28	=28	=28
8e\L	.	4.ee\
8E\	.	.
8e\J	.	.
8e\L	.	8r
8E\	.	8ee\L
8e\J	.	8ff#y\J
4.e\	#	8gg#X\L
.	.	8ee\
.	.	8gg#y\J
4.E\	.	8gg#y\L
.	.	8ee\
.	.	8gg#y\J
=29	=29	=29
4.e\	4#| 2	8aa#X\L
.	.	8ff#y\
.	.	8aa#y\J
4.E\	.	8aa#y\L
.	.	8ff#y\
.	.	8aa#y\J
4.dn\	6	8bb\L
.	.	8ff#y\
.	.	8bb\J
4.D\	.	8bb\L
.	.	8ff#y\
.	.	8bb\J
=30	=30	=30
4.e\	.	8bb\L
.	.	8ee\
.	.	8bb\J
4.E\	.	8bb\L
.	.	8ee\
.	.	8bb\J
4.f#y\	#	8aa#X\L
.	.	8ff#y\
.	.	8aa#y\J
4.F#y\	.	8aa#y\L
.	.	8ff#y\
.	.	8aa#y\J
!!LO:PB:g=original
=31	=31	=31
8B\L	.	4.bb\
8BB\	.	.
8B\J	.	.
8B\L	.	8r
8BB\	.	8bb\L
8B\J	.	8aa\J
4.e\	#	8gg#X\L
.	.	8ee\
.	.	8gg#y\J
4.dn\	4#| 2	8gg#y\L
.	.	8ee\
.	.	8gg#y\J
=32	=32	=32
4.c\	6	8aa\L
.	.	8ee\
.	.	8aa\J
4.C/	.	8aa\L
.	.	8ee\
.	.	8aa\J
4.d\	.	8ff#y\L
.	.	8dd\
.	.	8ff#y\J
4.c\	4 2	8ff#y\L
.	.	8dd\
.	.	8ff#y\J
=33	=33	=33
4.B\	6	8gg\L
.	.	8aa\
.	.	8bb\J
4.c\	6	8aa\L
.	.	8bb\
.	5	8gg\J
8d\L	.	8ff#y\L
8D\	.	8ee\
8d\J	.	8dd\J
8c\L	4 2	8r
8D\	.	8r
8c\J	.	8dd\
=34	=34	=34
4.B\	6	8gg\L
.	.	8dd\
.	.	8gg\J
4.BB/	.	8gg\L
.	.	8dd\
.	.	8gg\J
4.c\	.	8ee\L
.	.	8cc\
.	.	8ee\J
4.C/	.	8ee\L
.	.	8cc\
.	.	8ee\J
=35	=35	=35
4.c#y\	6	8aa\L
.	.	8ee\
.	.	8aa\J
4.C#y/	.	8aa\L
.	.	8ee\
.	.	8aa\J
4.d\	.	8ff#y\L
.	.	8dd\
.	.	8ff#y\J
4.D\	.	8ff#y\L
.	.	8dd\
.	.	8ff#y\J
!!LO:LB:g=original
=36	=36	=36
4.d#X\	6	8bb\L
.	.	8ff#y\
.	.	8bb\J
4.D#X\	.	8bb\L
.	.	8ff#y\
.	.	8bb\J
4.e\	.	8gg\L
.	.	8ee\
.	.	8gg\J
4.E\	.	8gg\L
.	.	8ee\
.	.	8gg\J
=37	=37	=37
4.c\	6	8aa\L
.	.	8ee\
.	.	8aa\J
4.C/	.	8aa\L
.	.	8ee\
.	.	8aa\J
4.D\	.	8ff#y\L
.	.	8dd\
.	.	8ff#y\J
4.BB/	6	8gg\L
.	.	8b\
.	.	8gg\J
=38	=38	=38
4.C/	6 5	8gg\L
.	.	8a\
.	.	8gg\J
4.D\	.	8ff#y\L
.	.	8a\
.	.	8ff#y\J
8G/L	.	4.gg\
8GG/	.	.
8G/J	.	.
8G/L	.	8r
8GG/	.	8r
8G/J	.	8dd\
=39	=39	=39
4.G\	-	(8bb-X\L
.	.	8aa\)
.	.	8gg\J
4.GG/	.	(8bb-y\L
.	.	8aa\)
.	.	8gg\J
8d\L	.	4aa\
8D\	.	.
8d\J	.	8dd\
8d\L	.	8r
8D\	.	8r
8d\J	.	8dd\
=40	=40	=40
4.G\	-	(8bb-X\L
.	.	8aa\)
.	.	8gg\J
4.GG/	.	(8bb-y\L
.	.	8aa\)
.	.	8gg\J
8d\L	.	4aa\
8D\	.	.
8d\J	.	8dd\
8d\L	.	8r
8D\	.	8r
8d\J	.	8dd\
!!LO:LB:g=original
=41	=41	=41
4.G\	6-r	4ee-X\
.	.	8ee-y\
4.GG/	.	4ee-y\
.	.	8ee-y\
4.AA/	5-r	(8ee-y\L
.	.	8dd\)
.	.	8cc\J
4.BB-X/	.	4dd\
.	.	8bb-X\
=42	=42	=42
4.C/	6-r	4aa-X\
.	.	8gg\
4.D\	#	(8ff#X\L
.	.	8gg\)
.	.	8aa\J
8G/L	.	4.gg\
8GG/	.	.
8G/J	.	.
8G/L	.	8r
8GG/	.	8r
8G/J	.	8dd\
=43	=43	=43
4.G\	6-r	4ee-X\
.	.	8ee-y\
4.GG/	.	4ee-y\
.	.	8ee-y\
4.AA/	5-r	(8ee-y\L
.	.	8dd\)
.	.	8cc\J
4.BB-X/	.	4dd\
.	.	8b-X\
=44	=44	=44
4.C/	6-r	4a-X/
.	.	8g/
4.D\	.	(8f#X/L
.	.	8g/)
.	.	8a/J
4.GG/	.	8g/L
.	.	8d/
.	.	8g/J
4r	.	8B/L
.	.	8d/
8r	.	8B/J
=45	=45	=45
8G\L	.	4.G/
8D\	.	.
8G\J	.	.
8BB/L	.	4r
8D/	.	.
8BB/J	.	8r
2.GG/	.	2.r
=:|!	=:|!	=:|!
*-	*-	*-
!!!SMS: RV 23 / Estienne Roger, Amsterdam [facs.]
!!!ENC: Fran Bennion; rev. E Correia (4/21)
!!!END: 2004/12/01
!!!ONB: Converted from MuseData with musedata2hum on Sat May 11 12:07:52 2024
!!!YEM: (C) 2004, 2004 Center for Computer Assisted Research in the Humanities.
!!!system-decoration: [(s1,s2)]
!!!URL-info: https://wiki.ccarh.org/wiki/MuseData:_Antonio_Vivaldi#Op._2:_Sonate_a_violino_e_basso_per_il_cembalo
!!!URL-pdf: https://pdf.musedata.org/vivaldi-op02-no08.pdf#page=2 MuseData edition
!!!URL-pdf: http://conquest.imslp.info/files/imglnks/usimg/b/b7/IMSLP99075-PMLP183164-Vivaldi_-_Sonatas_Op2.pdf#page=28 Estienne Roger Amsterdam: Estienne Roger, No.2, n.d.[1711].
!!!URL-youtube: https://www.youtube.com/watch?v=SiijZmW9jKM&t=3114s L'Arte dell'Arco
!!!title: @{OTL}, mov. @{OMV}
!!!filter-chint: chint -mid
!!!EEV: 2024/05/11
!!!source-file: https://bitbucket.org/musedata/vivaldi/src/master/roger/op2/no08/stage2/02/01
!!!source-file: https://bitbucket.org/musedata/vivaldi/src/master/roger/op2/no08/stage2/02/02
